app/dist/common/images/acme.svg

<svg height="18" viewBox="0 0 18 18" width="18" xmlns="http://www.w3.org/2000/svg"><path d="m0 0h18v18h-18z" fill="#3a52ac"/><g fill="#fff"><path d="m9 4.65v-.65c-.95 0-1.3.67-1.37 1l-.66 4h-1.84c-1.33 0-2.13 1.51-2.13 2.43s.6 2.57 2.37 2.57c1.85 0 2.53-1.66 2.64-2.49l.2-1.51h.79v-1h-.67l.5-4c.03-.26.13-.35.17-.35zm-2 5.35h-1.85c-.39.11-1.15.54-1.15 1.32 0 .98.53 1.68 1.32 1.68.78 0 1.68-.88 1.68-3z" fill-rule="evenodd"/><path d="m9 4v.65c.04 0 .14.09.17.35l.82 6.51c.1.83.79 2.49 2.64 2.49 1.76 0 2.37-1.65 2.37-2.57s-.8-2.43-2.13-2.43h-1.84l-.66-4c-.07-.33-.42-1-1.37-1zm2 6h1.85c.39.11 1.15.54 1.15 1.32 0 .98-.53 1.68-1.32 1.68-.78 0-1.68-.88-1.68-3z"/></g></svg>

<!-- by TradingView --><svg width="18" height="18" viewBox="0 0 18 18" xmlns="http://www.w3.org/2000/svg"><path fill="#3A52AC" d="M0 0h18v18H0z"/><path fill-rule="evenodd" d="M9 4.65V4c-.95 0-1.3.67-1.37 1l-.66 4H5.13C3.8 9 3 10.51 3 11.43c0 .92.6 2.57 2.37 2.57 1.85 0 2.53-1.66 2.64-2.49l.2-1.51H9V9h-.67l.5-4c.03-.26.13-.35.17-.35ZM7 10H5.15c-.39.11-1.15.54-1.15 1.32C4 12.3 4.53 13 5.32 13 6.1 13 7 12.12 7 10Z" fill="#fff"/><path d="M9 4v.65c.04 0 .14.09.17.35l.82 6.51c.1.83.79 2.49 2.64 2.49 1.76 0 2.37-1.65 2.37-2.57 0-.92-.8-2.43-2.13-2.43h-1.84l-.66-4C10.3 4.67 9.95 4 9 4Zm2 6h1.85c.39.11 1.15.54 1.15 1.32 0 .98-.53 1.68-1.32 1.68-.78 0-1.68-.88-1.68-3Z" fill="#fff"/></svg>
